img/logos-img-04.svg

<svg width="149" height="60" viewBox="0 0 149 60" fill="none" xmlns="http://www.w3.org/2000/svg">
<path d="M38.4157 4.70455L28.3349 6.79545L28.2883 39.1591C28.2883 45.1364 32.898 49 39.021 49C42.4201 49 44.9111 48.3864 46.2847 47.6591V39.9773C44.9577 40.5 38.439 42.3636 38.439 36.4091V22.0455H46.2847V13.4545H38.439L38.4157 4.70455ZM59.1593 16.4318L58.5307 13.4545H49.5907V48.2727H59.9043V24.8409C62.3488 21.7045 66.4696 22.3182 67.7966 22.7273V13.4545C66.3997 12.9773 61.5805 12.0909 59.1593 16.4318ZM80.6479 0L70.2644 2.15909V10.3864L80.6479 8.22727V0ZM10.4549 23.7045C10.4549 22.1364 11.8052 21.5227 13.9704 21.5C17.1133 21.5 21.1177 22.4318 24.2607 24.0909V14.5909C20.8383 13.2727 17.416 12.75 13.9937 12.75C5.6124 12.75 0.0249023 17.0227 0.0249023 24.1591C0.0249023 35.3409 15.7397 33.5227 15.7397 38.3409C15.7397 40.2046 14.0868 40.8182 11.7819 40.8182C8.35959 40.8182 3.93615 39.4318 0.467246 37.5909V46.6818C4.30865 48.2955 8.19662 48.9773 11.7587 48.9773C20.3494 48.9773 26.2629 45.3864 26.2629 38.1136C26.2629 26.0909 10.4549 28.25 10.4549 23.7045ZM149.002 31.2727C149.002 20.9318 143.88 12.7727 134.055 12.7727C124.23 12.7727 118.247 20.9318 118.247 31.2045C118.247 43.3636 125.301 48.9773 135.359 48.9773C140.294 48.9773 143.996 47.8864 146.813 46.3636V38.7727C143.996 40.1591 140.76 41 136.663 41C132.635 41 129.096 39.6136 128.631 34.8864H148.862C148.908 34.3636 149.002 32.25 149.002 31.2727ZM128.537 27.4545C128.537 22.9091 131.401 21 133.985 21C136.523 21 139.223 22.9091 139.223 27.4545H128.537ZM102.253 12.7727C98.2019 12.7727 95.5944 14.6364 94.151 15.9318L93.6155 13.4318H84.5126V59.9773L94.8494 57.8409L94.8727 46.4318C96.3627 47.5 98.5744 48.9773 102.183 48.9773C109.586 48.9773 116.338 43.7045 116.338 30.8864C116.361 19.1591 109.517 12.7727 102.253 12.7727ZM99.785 40.6136C97.3638 40.6136 95.9204 39.75 94.9193 38.7045L94.8494 23.7045C95.9204 22.5455 97.4104 21.7045 99.785 21.7045C103.557 21.7045 106.164 25.8409 106.164 31.1136C106.187 36.5455 103.626 40.6136 99.785 40.6136ZM70.2877 48.2727H80.6711V13.4545H70.2877V48.2727Z" fill="#737373"/>
</svg>

<svg width="149" height="60" fill="none" xmlns="http://www.w3.org/2000/svg"><path d="m38.416 4.705-10.081 2.09-.047 32.364c0 5.977 4.61 9.841 10.733 9.841 3.4 0 5.89-.614 7.264-1.34v-7.683c-1.327.523-7.846 2.387-7.846-3.568V22.046h7.846v-8.591h-7.846l-.023-8.75Zm20.743 11.727-.628-2.977h-8.94v34.818h10.313V24.84c2.445-3.137 6.566-2.523 7.893-2.114v-9.273c-1.397-.477-6.216-1.363-8.638 2.978ZM80.648 0 70.264 2.16v8.226l10.384-2.159V0ZM10.455 23.704c0-1.568 1.35-2.181 3.515-2.204 3.143 0 7.148.932 10.29 2.59v-9.5c-3.422-1.317-6.844-1.84-10.266-1.84-8.382 0-13.97 4.273-13.97 11.41 0 11.18 15.716 9.363 15.716 14.18 0 1.865-1.653 2.478-3.958 2.478-3.422 0-7.846-1.386-11.315-3.227v9.09a29.25 29.25 0 0 0 11.292 2.296c8.59 0 14.504-3.59 14.504-10.863 0-12.023-15.808-9.864-15.808-14.41Zm138.547 7.569c0-10.341-5.122-18.5-14.947-18.5s-15.808 8.159-15.808 18.431c0 12.16 7.054 17.773 17.112 17.773 4.935 0 8.637-1.09 11.454-2.613v-7.591C143.996 40.159 140.76 41 136.663 41c-4.028 0-7.567-1.386-8.032-6.114h20.231c.046-.522.14-2.636.14-3.613Zm-20.465-3.819c0-4.545 2.864-6.454 5.448-6.454 2.538 0 5.238 1.91 5.238 6.454h-10.686Zm-26.284-14.681c-4.051 0-6.659 1.863-8.102 3.159l-.535-2.5h-9.103v46.545l10.336-2.136.024-11.41c1.49 1.069 3.701 2.546 7.31 2.546 7.403 0 14.155-5.272 14.155-18.09.023-11.728-6.821-18.114-14.085-18.114Zm-2.468 27.84c-2.421 0-3.865-.863-4.866-1.908l-.07-15c1.071-1.16 2.561-2 4.936-2 3.772 0 6.379 4.136 6.379 9.409.023 5.431-2.538 9.5-6.379 9.5Zm-29.497 7.66H80.67V13.454H70.288v34.819Z" fill="#737373"/></svg>
